X: 1
T:Languedoc Wedding Tune
R:Wedding march
O:France
M:6/8
K:D
Adf Adf|fed e2c|Ace Ace|gfe f2d|\
Adf Adf|fed e2c|Ace gfe|ABc d3::
Adf a2^g|a2=g e2c|Ace g2f|g2a f2d|\
Adf a2^g|a2=g e2c|Ace gfe|ABc d3:|
